X: 38558
T: Stijn Van Beek's
R: jig
M: 6/8
K: Bminor
BFF Bdf|a2g feg|fBB def|eAA cde|
BFF Bdf|a2g feg|fBB def|eAA cde:|
ABB Bdg|bgd Bdb|afd Adf|gfa gfd|
ABB Bdg|bgd Bdg|fag fde|cBA A2F|
~G3 GBd|bgd Bdb|afd Adf|gfa gfd|
ABB Bdg|bgd Bdg|fag fde|cBA A2B|

